X: 1
T: Fagergalloppen av O. Jenge
C: O. Jenge
R: polka, gallop
Z: 2017 John Chambers <jc:trillian.mit.edu>
M: 2/4
L: 1/16
K: D
"A"[|] aa |\
a2ff f2dd | d2AA A2AA | {AB}A2F2 A2B2 | A6 A2 |\
"A7"A3B c3d | e2f2 g2e2 | c2A2 B2c2 |1 d2f2 a2 :|2 d6 dz ||
"B"|:\
"G"G3B dBGB | d2B2 d2G2 | "D"F3A dAFA | d2A2 d2F2 |\
"A7"E3F G2A2 | c2c2 c3B | A2g2 f2e2 |1 "D"d2f2 A4 :|2 "D"d6 dz :|
